!!! OTL: Literature137
!!! Chapter: 5
!!! Section: IV
!!! Page: 377
!!! Mode: 
!!! Encoder: DJB
**kern
*staff1
*I"Piano
=1-
*clefG2
*k[b-e-a-]
*c:
*M3/4
4r
4..cc\
16ee-\
=2
8dd\
8r
4.g/
40g\LLL
40an\
40bn\
40cc\
40dd\JJJ
=3
8een\
8r
4..ee\
16gg\
=4
8ff\
8r
4.f/
32cc\LLL
32dd\
32een\
32ff\JJJ
=5
8ff#\
8r
4.f#/
32cc\LLL
32dd\
32ee-\
32ff#\JJJ
=6
8gg\
8r
2aa-\
=7
8.r
16a-/
8f/
8r
8g/
8r
=8
!!linebreak:original
8c/
8r
2r
==
*-
